static/assets/images/exchanges/gammaswap.svg

<svg width="348" height="256" viewBox="0 0 348 256" fill="none" xmlns="http://www.w3.org/2000/svg">
<path fill-rule="evenodd" clip-rule="evenodd" d="M338.868 0C343.842 0 347.667 4.07963 347.537 8.92418C345.882 65.4032 328.798 118.564 298.837 159.235C265.948 204.111 221.453 228.714 173.773 228.714C138.586 228.714 105.184 215.329 76.8814 190.342C74.3317 187.921 73.3118 184.222 74.4575 180.908C77.6464 171.728 81.3452 163.059 85.6764 154.771C86.2854 153.568 87.1711 152.526 88.2607 151.732C89.3504 150.938 90.6129 150.414 91.9446 150.202C93.2763 149.991 94.6391 150.099 95.9212 150.516C97.2032 150.934 98.3678 151.65 99.3194 152.605C120.482 173.388 146.106 185.623 173.773 185.623C210.999 185.623 244.656 163.44 268.498 127.998C244.656 92.5599 210.999 70.3736 173.773 70.3736C103.525 70.3736 46.0293 149.165 42.9695 247.712C42.8956 249.93 41.9644 252.033 40.3717 253.579C38.779 255.124 36.649 255.992 34.4295 256H8.67348C7.51241 256.002 6.36273 255.771 5.29287 255.32C4.223 254.869 3.25483 254.207 2.44597 253.374C1.63711 252.541 1.00411 251.554 0.584633 250.471C0.165158 249.389 -0.0322105 248.233 0.00427487 247.072C1.27916 204.11 11.4782 163.059 29.4558 128.002C11.4782 92.9373 1.27916 52.0186 0.00427487 8.92078C-0.121514 4.07963 3.82892 0 8.67348 0H34.4261C36.6462 0.00669108 38.7771 0.874235 40.3705 2.4201C41.9639 3.96596 42.8956 6.06961 42.9695 8.28844C43.8603 36.0809 49.089 62.2177 57.6324 85.5464C89.5045 47.9356 130.301 27.4117 173.773 27.4117C217.248 27.4117 258.044 47.939 289.916 85.5464C298.585 62.2143 303.685 36.0809 304.576 8.28844C304.65 6.06961 305.581 3.96596 307.175 2.4201C308.768 0.874235 310.899 0.00669108 313.119 0H338.868ZM318.854 164.589C322.934 158.599 331.858 160 334.024 166.884C342.186 192.001 346.776 219.154 347.541 247.076C347.667 251.92 343.716 256 338.872 256H313.119C310.899 255.993 308.768 255.126 307.175 253.58C305.581 252.034 304.65 249.93 304.576 247.712C304.067 230.443 301.803 213.272 297.82 196.461C297.509 195.076 297.531 193.637 297.886 192.263C298.241 190.888 298.917 189.618 299.86 188.557C305.045 182.859 309.938 176.902 314.52 170.709C316.05 168.669 317.45 166.629 318.854 164.589Z" fill="url(#paint0_linear_10243_974)"/>
<defs>
<linearGradient id="paint0_linear_10243_974" x1="173.773" y1="0" x2="173.773" y2="256" gradientUnits="userSpaceOnUse">
<stop stop-color="#55C1F8"/>
<stop offset="0.505" stop-color="#0085FF"/>
<stop offset="1" stop-color="#4A4CFF"/>
</linearGradient>
</defs>
</svg>

<svg xmlns="http://www.w3.org/2000/svg" fill="none" viewBox="0 0 348 256"><path fill="url(#paint0_linear_10243_974)" fill-rule="evenodd" d="M338.868 0c4.974 0 8.799 4.08 8.669 8.924-1.655 56.48-18.739 109.64-48.7 150.311-32.889 44.876-77.384 69.479-125.064 69.479-35.187 0-68.589-13.385-96.892-38.372-2.55-2.421-3.57-6.12-2.424-9.434 3.19-9.18 6.888-17.849 11.22-26.137a8.524 8.524 0 0 1 13.642-2.166c21.163 20.783 46.787 33.018 74.454 33.018 37.226 0 70.883-22.183 94.725-57.625-23.842-35.438-57.499-57.624-94.725-57.624-70.248 0-127.744 78.791-130.803 177.338A8.574 8.574 0 0 1 34.43 256H8.672a8.66 8.66 0 0 1-6.227-2.626 8.65 8.65 0 0 1-2.442-6.302c1.275-42.962 11.474-84.013 29.452-119.07C11.478 92.937 1.279 52.019.004 8.921-.122 4.08 3.83 0 8.674 0h25.752a8.574 8.574 0 0 1 8.543 8.288c.891 27.793 6.12 53.93 14.663 77.258 31.872-37.61 72.669-58.134 116.141-58.134 43.475 0 84.271 20.527 116.143 58.134 8.669-23.332 13.769-49.465 14.66-77.258A8.57 8.57 0 0 1 313.119 0zm-20.014 164.589c4.08-5.99 13.004-4.589 15.17 2.295 8.162 25.117 12.752 52.27 13.517 80.192.126 4.844-3.825 8.924-8.669 8.924h-25.753a8.573 8.573 0 0 1-8.543-8.288 255 255 0 0 0-6.756-51.251 8.95 8.95 0 0 1 2.04-7.904 228 228 0 0 0 14.66-17.848c1.53-2.04 2.93-4.08 4.334-6.12" clip-rule="evenodd"/><defs><linearGradient id="paint0_linear_10243_974" x1="173.773" x2="173.773" y1="0" y2="256" gradientUnits="userSpaceOnUse"><stop stop-color="#55C1F8"/><stop offset=".505" stop-color="#0085FF"/><stop offset="1" stop-color="#4A4CFF"/></linearGradient></defs></svg>
